app/dist/common/images/rathbones-plc.svg

<svg fill="none" height="18" viewBox="0 0 18 18" width="18" xmlns="http://www.w3.org/2000/svg"><path d="m0 0h18v18h-18z" fill="#b9cdd6"/><path clip-rule="evenodd" d="m10.1272 4c1.58 0 2.8728 1.25558 2.8728 2.64428v.29405c0 1.3887-1.2032 2.56167-2.7832 2.56167h-.88349l3.66669 4.5h-1.596l-3.19651-3.8153c-.13944-.1461-.20751-.31002-.20751-.50074v-.90512c0-.42904.39799-.77884.88614-.77884h.97355c1.08763 0 1.64033-.46486 1.64033-1.38063 0-.85458-.668-1.11937-1.64033-1.11937h-2.86339v8.5h-1.5v-9.22117c0-.42904.39799-.77883.88614-.77883z" fill="#19286b" fill-rule="evenodd"/></svg>

<!-- by TradingView --><svg width="18" height="18" viewBox="0 0 18 18" fill="none" xmlns="http://www.w3.org/2000/svg">
<rect width="18" height="18" fill="#B9CDD6"/>
<path fill-rule="evenodd" clip-rule="evenodd" d="M10.1272 4C11.7072 4 13 5.25558 13 6.64428V6.93833C13 8.32703 11.7968 9.5 10.2168 9.5H9.33331L13 14H11.404L8.20749 10.1847C8.06805 10.0386 7.99998 9.87468 7.99998 9.68396V8.77884C7.99998 8.3498 8.39797 8 8.88612 8H9.85967C10.9473 8 11.5 7.53514 11.5 6.61937C11.5 5.76479 10.832 5.5 9.85967 5.5H6.99628V14H5.49628V4.77883C5.49628 4.34979 5.89427 4 6.38242 4L10.1272 4Z" fill="#19286B"/>
</svg>
